_includes/icons/color-python.svg

<svg fill="#666" height="50" viewBox="0 0 48 48" width="50" xmlns="http://www.w3.org/2000/svg"><path d="m24.046875 5c-1.554687.003906-2.632812.140625-3.9375.367188-3.847656.667968-4.546875 2.078125-4.546875 4.667968v3.964844h9v2h-13.691406c-2.636719 0-4.945313 1.242188-5.675781 4.21875-.824219 3.417969-.863282 5.558594 0 9.125.65625 2.660156 2.097656 4.65625 4.734375 4.65625h3.632812v-5.105469c0-2.964843 2.6875-5.894531 5.765625-5.894531h7.234375c2.523438 0 5-1.863281 5-4.378906v-8.585938c0-2.4375-1.757812-4.261718-4.21875-4.671875.0625-.003906-1.753906-.371093-3.296875-.363281zm-4.984375 4c.820313 0 1.5.675781 1.5 1.503906 0 .832032-.679687 1.496094-1.5 1.496094-.835937 0-1.5-.664062-1.5-1.496094 0-.824218.664063-1.503906 1.5-1.503906z" fill="#0277bd"/><path d="m23.078125 43c1.554688-.003906 2.632813-.140625 3.9375-.367187 3.847656-.667969 4.546875-2.078125 4.546875-4.667969v-3.964844h-9v-2h13.695313c2.632812 0 4.941406-1.242187 5.671875-4.21875.828125-3.417969.863281-5.558594 0-9.125-.65625-2.660156-2.097657-4.65625-4.734375-4.65625h-3.632813v5.105469c0 2.964844-2.6875 5.894531-5.765625 5.894531h-7.234375c-2.523437 0-5 1.863281-5 4.378906v8.585938c0 2.4375 1.757813 4.261719 4.21875 4.671875-.0625.003906 1.753906.371094 3.296875.363281zm4.984375-4c-.820312 0-1.5-.675781-1.5-1.503906 0-.832031.679688-1.496094 1.5-1.496094.835938 0 1.5.664063 1.5 1.496094 0 .824219-.664062 1.503906-1.5 1.503906z" fill="#ffc107"/></svg>

<svg xmlns="http://www.w3.org/2000/svg" viewBox="0 0 48 48" width="50" height="50" fill="#666"><path d="M 24.046875 5 C 22.492188 5.003906 21.414063 5.140625 20.109375 5.367188 C 16.261719 6.035156 15.5625 7.445313 15.5625 10.035156 L 15.5625 14 L 24.5625 14 L 24.5625 16 L 10.871094 16 C 8.234375 16 5.925781 17.242188 5.195313 20.21875 C 4.371094 23.636719 4.332031 25.777344 5.195313 29.34375 C 5.851563 32.003906 7.292969 34 9.929688 34 L 13.5625 34 L 13.5625 28.894531 C 13.5625 25.929688 16.25 23 19.328125 23 L 26.5625 23 C 29.085938 23 31.5625 21.136719 31.5625 18.621094 L 31.5625 10.035156 C 31.5625 7.597656 29.804688 5.773438 27.34375 5.363281 C 27.40625 5.359375 25.589844 4.992188 24.046875 5 Z M 19.0625 9 C 19.882813 9 20.5625 9.675781 20.5625 10.503906 C 20.5625 11.335938 19.882813 12 19.0625 12 C 18.226563 12 17.5625 11.335938 17.5625 10.503906 C 17.5625 9.679688 18.226563 9 19.0625 9 Z" fill="#0277bd"/><path d="M 23.078125 43 C 24.632813 42.996094 25.710938 42.859375 27.015625 42.632813 C 30.863281 41.964844 31.5625 40.554688 31.5625 37.964844 L 31.5625 34 L 22.5625 34 L 22.5625 32 L 36.257813 32 C 38.890625 32 41.199219 30.757813 41.929688 27.78125 C 42.757813 24.363281 42.792969 22.222656 41.929688 18.65625 C 41.273438 15.996094 39.832031 14 37.195313 14 L 33.5625 14 L 33.5625 19.105469 C 33.5625 22.070313 30.875 25 27.796875 25 L 20.5625 25 C 18.039063 25 15.5625 26.863281 15.5625 29.378906 L 15.5625 37.964844 C 15.5625 40.402344 17.320313 42.226563 19.78125 42.636719 C 19.71875 42.640625 21.535156 43.007813 23.078125 43 Z M 28.0625 39 C 27.242188 39 26.5625 38.324219 26.5625 37.496094 C 26.5625 36.664063 27.242188 36 28.0625 36 C 28.898438 36 29.5625 36.664063 29.5625 37.496094 C 29.5625 38.320313 28.898438 39 28.0625 39 Z" fill="#ffc107"/></svg>
